assets/images/appstore-icon.svg

<svg width="40" height="40" viewBox="0 0 40 40" fill="none" xmlns="http://www.w3.org/2000/svg">
<path d="M28.4173 33.8C26.7839 35.3833 25.0006 35.1333 23.2839 34.3833C21.4673 33.6167 19.8006 33.5833 17.8839 34.3833C15.4839 35.4167 14.2173 35.1167 12.7839 33.8C4.6506 25.4167 5.8506 12.65 15.0839 12.1833C17.3339 12.3 18.9006 13.4167 20.2173 13.5167C22.1839 13.1167 24.0673 11.9667 26.1673 12.1167C28.6839 12.3167 30.5839 13.3167 31.8339 15.1167C26.6339 18.2333 27.8673 25.0833 32.6339 27C31.6839 29.5 30.4506 31.9833 28.4006 33.8167L28.4173 33.8ZM20.0506 12.0833C19.8006 8.36667 22.8173 5.3 26.2839 5C26.7673 9.3 22.3839 12.5 20.0506 12.0833Z" fill="white"/>
</svg>

<svg xmlns="http://www.w3.org/2000/svg" width="40" height="40" fill="none" xmlns:v="https://vecta.io/nano"><path d="M28.417 33.8c-1.633 1.583-3.417 1.333-5.133.583-1.817-.767-3.483-.8-5.4 0-2.4 1.033-3.667.733-5.1-.583-8.133-8.383-6.933-21.15 2.3-21.617 2.25.117 3.817 1.233 5.133 1.333 1.967-.4 3.85-1.55 5.95-1.4 2.517.2 4.417 1.2 5.667 3-5.2 3.117-3.967 9.967.8 11.883-.95 2.5-2.183 4.983-4.233 6.817l.017-.017zm-8.367-21.717C19.801 8.367 22.817 5.3 26.284 5c.483 4.3-3.9 7.5-6.233 7.083z" fill="#fff"/></svg>
